!!!SOCIAL_FUNCTION:	dream songs
!!!PDT:	1913
!!!OTL: No_141_The_Approach_of_the_Thunderbirds.krn
!!!REG: Great_Lakes
!!!LANG: Non-Tone
!!!LING_GROUP: Algonquin
**kern	**kern
*staff2	*staff1
=1-	=1-
*clefF4	*clefF4
*k[f#]	*k[f#]
*M2/4	*M2/4
8GG/L	8.e\L
8GG/J	.
.	16e\Jk
8GG/L	4e\
8GG/J	.
=2	=2
8GG/L	4.e\
8GG/J	.
8GG/L	.
8GG/J	8e\
=3	=3
2r	8d\L
.	8d\J
.	8d\L
.	8d\J
=4||	=4||
*M3/4	*M3/4
2.r	8d\L
.	8B\J
.	8B\L
.	16.B\L
.	32B\JJk
.	8B\L
.	8d\J
=5||	=5||
*M2/4	*M2/4
2r	4.d\
.	[8d\
=6	=6
2r	8d\L]
.	8B\J
.	8B\L
.	[8B\J
=7||	=7||
*M3/4	*M3/4
2.r	4.B\]
.	8B\
.	8B\L
.	8d\J
=8||	=8||
*M2/4	*M2/4
2r	4.d\
.	16d\LL
.	16B\JJ
=9||	=9||
*M3/4	*M3/4
2.r	(16B\LL
.	16G\)
.	16G\
.	16G\JJ
.	8.E\L
.	16E\Jk
.	8E\L
.	8E\J
=10||	=10||
*M2/4	*M2/4
2r	4.D\
.	8D\
=11||	=11||
*M3/4	*M3/4
2.r	(8D/L
.	8BB/J)
.	8BB/L
.	16.BB/L
.	32E/JJk
.	8E\L
.	8E\J
=12||	=12||
*M2/4	*M2/4
2r	4.D\
.	8D\
=13||	=13||
*M3/4	*M3/4
2.r	8D/L
.	8BB/J
.	8BB/L
.	16.BB/L
.	32D/JJk
.	8D\L
.	8D\J
=14	=14
2.r	2.BB/
==	==
*-	*-
